packages/foundations/assets/icons/functional/images/human/restricted_mobility_toilet_14.svg

<svg width="14" height="14" viewBox="0 0 14 14" fill="none" xmlns="http://www.w3.org/2000/svg">
<g clip-path="url(#clip0_185_1159)">
<path fill-rule="evenodd" clip-rule="evenodd" d="M2.86545 8.54843C3.15053 8.76309 3.24659 9.20595 3.00357 9.52869C2.86758 9.7093 2.79325 9.92773 2.79325 10.1593C2.79325 10.7392 3.26335 11.2093 3.84325 11.2093C4.04003 11.2093 4.26616 11.1596 4.48439 10.9909C4.79029 10.7545 5.22991 10.8109 5.46631 11.1167C5.70272 11.4226 5.64639 11.8623 5.34049 12.0987C4.91494 12.4276 4.39198 12.6093 3.84325 12.6093C2.49015 12.6093 1.39325 11.5124 1.39325 10.1593C1.39325 9.62125 1.56796 9.10783 1.88518 8.68655C2.11773 8.37772 2.55661 8.31588 2.86545 8.54843ZM4.86115 7.13793C5.04263 7.67767 5.22279 8.21812 5.4016 8.75929H6.18549C6.70819 8.75929 7.231 9.04772 7.47229 9.60781C7.76287 10.2823 8.05226 10.9575 8.34047 11.6335C8.49276 11.9889 8.32815 12.4004 7.97281 12.5527C7.64285 12.6941 7.21213 12.5527 7.05367 12.185C6.763 11.5107 6.47361 10.8354 6.18549 10.1593H5.4016C4.83666 10.1593 4.33114 9.82038 4.11314 9.30697L3.53299 7.58065C3.41074 7.21389 3.60895 6.81747 3.97571 6.69521C4.31627 6.58169 4.72814 6.74237 4.86115 7.13793ZM3.84335 4.39502C4.27995 4.39502 4.64939 4.76445 4.64939 5.20106C4.64939 5.65448 4.27995 6.00709 3.84335 6.00709C3.38998 6.00709 3.03731 5.65448 3.03731 5.20106C3.03731 4.76445 3.38998 4.39502 3.84335 4.39502ZM5.1819 1.87487C5.1819 1.59583 5.43153 1.41961 5.66649 1.41961C5.85742 1.41961 6.05559 1.53539 6.10709 1.77205L6.51451 3.64578L6.97349 1.75739C7.02734 1.53586 7.23782 1.41961 7.42871 1.41961C7.61964 1.41961 7.8303 1.53149 7.88397 1.75739L8.33293 3.65273L8.73571 1.77205C8.78956 1.52134 8.98538 1.41961 9.17626 1.41961C9.42589 1.41961 9.66085 1.59583 9.66085 1.87487C9.66085 1.91895 9.65789 1.96209 9.64619 2.00701L8.79445 5.28182C8.7335 5.51622 8.53012 5.61961 8.33923 5.61961C8.1483 5.61961 7.94995 5.51486 7.88397 5.28182L7.41404 3.62242L6.94412 5.28182C6.87706 5.51867 6.67979 5.61961 6.48886 5.61961C6.29797 5.61961 6.09388 5.5017 6.03364 5.26716L5.19656 2.00701C5.18505 1.96204 5.1819 1.91895 5.1819 1.87487ZM9.80192 3.51245C9.80192 1.5941 10.9354 1.39069 11.4296 1.39069C11.7203 1.39069 12.0254 1.44882 12.3016 1.57959C12.505 1.66679 12.5922 1.82663 12.5922 1.98651C12.5922 2.23355 12.4033 2.48063 12.1417 2.48063C12.0836 2.48063 12.0109 2.46608 11.9528 2.43706C11.7929 2.36437 11.633 2.32079 11.4732 2.32079C11.2697 2.32079 10.732 2.3208 10.732 3.51245C10.732 4.66058 11.2116 4.66058 11.4732 4.66058C11.6476 4.64607 11.822 4.60245 11.9818 4.54431C12.0399 4.5298 12.0981 4.51525 12.1562 4.51525C12.4179 4.51525 12.6068 4.76233 12.6068 5.00937C12.6068 5.18376 12.5196 5.34365 12.3016 5.4308C12.0254 5.51804 11.7348 5.57618 11.4441 5.59069C10.8337 5.59069 9.80192 5.31454 9.80192 3.51245Z" fill="#1A1C1F"/>
</g>
<defs>
<clipPath id="clip0_185_1159">
<rect width="14" height="14" fill="white"/>
</clipPath>
</defs>
</svg>

<svg xmlns="http://www.w3.org/2000/svg" width="14" height="14" fill="none"><g clip-path="url(#a)"><path fill="#1A1C1F" fill-rule="evenodd" d="M2.865 8.548a.71.71 0 0 1 .139.98 1.05 1.05 0 0 0 1.48 1.462.7.7 0 0 1 .856 1.109 2.45 2.45 0 0 1-3.455-3.412.7.7 0 0 1 .98-.139m1.996-1.41q.273.81.54 1.621h.784c.523 0 1.046.289 1.287.849q.435 1.011.868 2.026a.7.7 0 0 1-.367.919.71.71 0 0 1-.92-.368q-.435-1.011-.868-2.026h-.783a1.4 1.4 0 0 1-1.289-.852l-.58-1.726a.7.7 0 0 1 1.328-.443M3.843 4.395c.437 0 .806.37.806.806 0 .453-.369.806-.806.806a.796.796 0 0 1-.806-.806c0-.437.353-.806.806-.806m1.339-2.52c0-.28.25-.455.484-.455.191 0 .39.115.441.352l.408 1.874.458-1.889c.054-.221.265-.337.456-.337.19 0 .401.112.455.337l.449 1.896.403-1.88a.43.43 0 0 1 .44-.353c.25 0 .485.176.485.455a.5.5 0 0 1-.015.132l-.852 3.275c-.06.234-.264.338-.455.338a.46.46 0 0 1-.455-.338l-.47-1.66-.47 1.66a.454.454 0 0 1-.455.338.465.465 0 0 1-.455-.353l-.837-3.26a.5.5 0 0 1-.015-.132m4.62 1.637c0-1.918 1.133-2.121 1.628-2.121.29 0 .595.058.872.189.203.087.29.247.29.407 0 .247-.189.494-.45.494a.45.45 0 0 1-.19-.044 1.2 1.2 0 0 0-.479-.116c-.203 0-.741 0-.741 1.191 0 1.149.48 1.149.741 1.149a2 2 0 0 0 .509-.117c.058-.014.116-.029.174-.029.262 0 .45.247.45.494 0 .175-.086.335-.304.422a3.4 3.4 0 0 1-.858.16c-.61 0-1.642-.276-1.642-2.079" clip-rule="evenodd"/></g><defs><clipPath id="a"><path fill="#fff" d="M0 0h14v14H0z"/></clipPath></defs></svg>
